img/headerServices/6.svg

<svg width="46" height="46" viewBox="0 0 46 46" fill="none" xmlns="http://www.w3.org/2000/svg">
<path d="M42.6875 39.1719H42.5581C42.6369 38.9511 42.6875 38.7163 42.6875 38.4688V30.0312C42.6875 28.8683 41.7411 27.9219 40.5781 27.9219H36.23C36.3088 27.7011 36.3594 27.4662 36.3594 27.2188V18.7812C36.3594 17.6183 35.413 16.6719 34.25 16.6719H28.5624L24.1602 8.23438H25.1094V1.20312H20.8906V8.23438H21.8173L17.2323 16.6719H11.75C10.587 16.6719 9.64062 17.6183 9.64062 18.7812V27.2188C9.64062 27.4662 9.69125 27.7011 9.77 27.9219H5.42188C4.25891 27.9219 3.3125 28.8683 3.3125 30.0312V38.4688C3.3125 38.7163 3.36313 38.9511 3.44187 39.1719H3.3125C2.14953 39.1719 1.20312 40.1183 1.20312 41.2812V42.6875C1.20312 43.8505 2.14953 44.7969 3.3125 44.7969H42.6875C43.8505 44.7969 44.7969 43.8505 44.7969 42.6875V41.2812C44.7969 40.1183 43.8505 39.1719 42.6875 39.1719ZM41.2812 30.0312V38.4688C41.2812 38.8569 40.9663 39.1719 40.5781 39.1719H40.3011L37.3662 33.5469H38.4688V29.3281H40.5781C40.9663 29.3281 41.2812 29.6431 41.2812 30.0312ZM17.375 38.4688V30.0312C17.375 29.6431 17.69 29.3281 18.0781 29.3281H20.1875V33.5469H25.8125V29.3281H27.9219C28.31 29.3281 28.625 29.6431 28.625 30.0312V38.4688C28.625 38.8569 28.31 39.1719 27.9219 39.1719H18.0781C17.69 39.1719 17.375 38.8569 17.375 38.4688ZM27.9219 18.4852L29.177 20.8906H27.9219V18.4852ZM29.911 22.2969L32.8459 27.9219H30.7344H27.9219H24.4062C24.0181 27.9219 23.7031 27.6069 23.7031 27.2188V18.7812C23.7031 18.3938 24.0181 18.0781 24.4062 18.0781H26.5156V22.2969H29.911ZM36.6329 32.1406L35.1655 29.3281H37.0625V32.1406H36.6329ZM24.4062 29.3281V32.1406H21.5938V29.3281H24.4062ZM30.0312 38.4688V30.0312C30.0312 29.6431 30.3463 29.3281 30.7344 29.3281H33.5792L38.7148 39.1719H30.7344C30.3463 39.1719 30.0312 38.8569 30.0312 38.4688ZM34.25 18.0781C34.6381 18.0781 34.9531 18.3938 34.9531 18.7812V27.2188C34.9531 27.5485 34.7211 27.8129 34.4145 27.8888L29.2958 18.0781H34.25ZM22.2969 2.60938H23.7031V6.82812H22.2969V2.60938ZM22.9873 9.0275L26.9762 16.6719H24.4062C23.8641 16.6719 23.3741 16.8835 23 17.2203C22.6259 16.8828 22.1359 16.6719 21.5938 16.6719H18.8326L22.9873 9.0275ZM15.2656 18.0781H18.0781V20.8906H15.2656V18.0781ZM11.0469 27.2188V18.7812C11.0469 18.3938 11.3619 18.0781 11.75 18.0781H13.8594V22.2969H19.4844V18.0781H21.5938C21.9819 18.0781 22.2969 18.3938 22.2969 18.7812V27.2188C22.2969 27.6069 21.9819 27.9219 21.5938 27.9219H18.0781H15.2656H11.75C11.3619 27.9219 11.0469 27.6069 11.0469 27.2188ZM8.9375 29.3281H11.75V32.1406H8.9375V29.3281ZM4.71875 38.4688V30.0312C4.71875 29.6431 5.03375 29.3281 5.42188 29.3281H7.53125V33.5469H13.1562V29.3281H15.2656C15.6538 29.3281 15.9688 29.6431 15.9688 30.0312V38.4688C15.9688 38.8569 15.6538 39.1719 15.2656 39.1719H5.42188C5.03375 39.1719 4.71875 38.8569 4.71875 38.4688ZM2.60938 42.6875V41.2812C2.60938 40.8931 2.92438 40.5781 3.3125 40.5781H5.42188H15.2656H18.0781H27.9219H30.7344H39.1719V43.3906H3.3125C2.92438 43.3906 2.60938 43.0756 2.60938 42.6875ZM43.3906 42.6875C43.3906 43.0756 43.0756 43.3906 42.6875 43.3906H40.5781V40.5781H42.6875C43.0756 40.5781 43.3906 40.8931 43.3906 41.2812V42.6875Z" fill="#4D7B7D"/>
</svg>

<svg width="46" height="46" fill="none" xmlns="http://www.w3.org/2000/svg"><path d="M42.688 39.172h-.13c.079-.22.13-.456.13-.703V30.03c0-1.163-.947-2.11-2.11-2.11H36.23c.079-.22.13-.455.13-.702V18.78c0-1.163-.947-2.11-2.11-2.11h-5.688L24.16 8.235h.95v-7.03h-4.22v7.03h.927l-4.585 8.438H11.75c-1.163 0-2.11.946-2.11 2.11v8.437c0 .247.051.482.13.703H5.422c-1.163 0-2.11.946-2.11 2.11v8.437c0 .247.051.482.13.703h-.13a2.112 2.112 0 0 0-2.109 2.11v1.406c0 1.162.947 2.109 2.11 2.109h39.374c1.163 0 2.11-.947 2.11-2.11v-1.406c0-1.163-.947-2.11-2.11-2.11Zm-1.407-9.14v8.437a.703.703 0 0 1-.703.703h-.277l-2.935-5.625h1.103v-4.219h2.11c.387 0 .702.315.702.703Zm-23.906 8.437V30.03c0-.388.315-.703.703-.703h2.11v4.219h5.625v-4.219h2.109c.388 0 .703.315.703.703v8.438a.703.703 0 0 1-.703.703h-9.844a.703.703 0 0 1-.703-.703Zm10.547-19.984 1.255 2.406h-1.255v-2.406Zm1.989 3.812 2.935 5.625h-8.44a.703.703 0 0 1-.703-.703V18.78c0-.387.315-.703.703-.703h2.11v4.219h3.395Zm6.722 9.844-1.468-2.813h1.898v2.813h-.43Zm-12.227-2.813v2.813h-2.812v-2.813h2.812Zm5.625 9.14v-8.437c0-.388.315-.703.703-.703h2.845l5.136 9.844h-7.98a.703.703 0 0 1-.704-.703Zm4.219-20.39c.388 0 .703.316.703.703v8.438c0 .33-.232.594-.539.67l-5.118-9.81h4.954ZM22.297 2.61h1.406v4.22h-1.406V2.61Zm.69 6.418 3.99 7.645h-2.57a2.1 2.1 0 0 0-1.407.548 2.092 2.092 0 0 0-1.406-.548h-2.761l4.154-7.645Zm-7.721 9.051h2.812v2.813h-2.812v-2.813Zm-4.22 9.14v-8.437c0-.387.316-.703.704-.703h2.11v4.219h5.624v-4.219h2.11c.388 0 .703.316.703.703v8.438a.703.703 0 0 1-.703.703H11.75a.703.703 0 0 1-.703-.703Zm-2.108 2.11h2.812v2.813H8.937v-2.813Zm-4.22 9.14v-8.437c0-.388.316-.703.704-.703h2.11v4.219h5.624v-4.219h2.11c.388 0 .703.315.703.703v8.438a.703.703 0 0 1-.703.703H5.422a.703.703 0 0 1-.703-.703Zm-2.109 4.22V41.28c0-.388.315-.703.704-.703h35.859v2.813H3.312a.703.703 0 0 1-.703-.703Zm40.782 0a.703.703 0 0 1-.703.703h-2.11v-2.813h2.11c.388 0 .703.315.703.703v1.407Z" fill="#4D7B7D"/></svg>
